static/img/logo.svg

<?xml version="1.0" encoding="UTF-8"?>
<svg width="120px" height="98px" viewBox="0 0 120 98" version="1.1" xmlns="http://www.w3.org/2000/svg" xmlns:xlink="http://www.w3.org/1999/xlink">
    <!-- Generator: Sketch 53 (72520) - https://sketchapp.com -->
    <title>SH logo</title>
    <desc>Created with Sketch.</desc>
    <defs>
        <polygon id="path-1" points="0 0.0876 3.9169 0.0876 3.9169 4.8206 0 4.8206"></polygon>
    </defs>
    <g id="Symbols" stroke="none" stroke-width="1" fill="none" fill-rule="evenodd">
        <g id="SH-logo">
            <g id="Group-42" transform="translate(0.000000, 5.000000)">
                <path d="M20.5502,77.9236 C20.5502,74.6906 18.9212,72.7366 16.1152,72.9806 C13.3102,73.2236 11.6822,75.3406 11.6822,78.6936 C11.6822,82.0466 13.3102,83.8806 16.1152,83.6366 C18.9212,83.3936 20.5502,81.1566 20.5502,77.9236 L20.5502,77.9236 Z M23.3552,62.0846 L23.3552,85.1336 L20.3392,85.3956 L20.3392,80.4266 L20.2792,80.4316 C20.2792,83.7246 18.2572,85.8756 14.8182,86.1736 C10.8972,86.5146 8.5742,83.8426 8.5742,78.9636 C8.5742,74.0846 10.8972,71.0086 14.8182,70.6686 C18.2572,70.3696 20.2792,72.1696 20.2792,75.4626 L20.3392,75.4576 L20.3392,62.3466 L23.3552,62.0846 Z" id="Fill-1" fill="#000000"></path>
                <path d="M29.9022,76.2737 L38.1672,75.5557 C37.9262,72.6727 36.4482,71.1257 34.0652,71.3317 C31.6522,71.5417 30.1432,73.3487 29.9022,76.2737 L29.9022,76.2737 Z M41.1542,76.5537 L29.8722,77.5337 C29.9932,80.6657 31.5612,82.3857 34.0652,82.1687 C36.2672,81.9767 37.8052,80.6467 38.1972,78.5767 L41.1542,78.3197 C40.6402,81.8667 38.0162,84.1597 34.0652,84.5027 C29.5702,84.8937 26.9452,82.2477 26.9452,77.3677 C26.9452,72.4887 29.5702,69.3877 34.0652,68.9977 C38.5292,68.6097 41.1542,71.2557 41.1542,76.1347 L41.1542,76.5537 Z" id="Fill-3" fill="#000000"></path>
                <path d="M43.6283,78.5539 L46.4953,78.3049 C46.4953,80.2509 47.8523,81.3009 50.1743,81.0989 C52.4673,80.8999 53.7943,79.9169 53.7943,78.4199 C53.7943,76.5339 51.8033,76.3769 49.6313,76.1769 C47.0373,75.9829 44.0813,75.7309 44.0813,72.4979 C44.0813,69.7739 46.3443,67.9309 50.1743,67.5979 C54.0053,67.2659 56.2683,68.8949 56.2683,72.0089 L53.4023,72.2569 C53.4023,70.4009 52.2263,69.3959 50.1743,69.5739 C48.1843,69.7469 47.0073,70.6579 47.0073,72.0039 C47.0073,73.5609 48.8173,73.7329 50.8683,73.9139 C53.5533,74.1599 56.7203,74.4239 56.7203,77.8959 C56.7203,80.7999 54.2773,82.7479 50.1743,83.1049 C46.0723,83.4609 43.6283,81.7869 43.6283,78.5539" id="Fill-5" fill="#000000"></path>
                <path d="M60.0575,64.8405 L60.1615,60.5875 L63.3415,60.2835 L63.3905,60.4175 C63.4685,62.7515 62.2865,64.3695 60.1615,64.8315 L60.0575,64.8405 Z M60.1305,67.0335 L63.1465,66.7715 L63.1465,81.6785 L60.1305,81.9405 L60.1305,67.0335 Z" id="Fill-7" fill="#000000"></path>
                <path d="M78.6815,72.8164 C78.6815,69.6134 77.0535,67.6894 74.2475,67.9324 C71.4425,68.1764 69.8135,70.2934 69.8135,73.5864 C69.8135,76.9094 71.4425,78.7134 74.2475,78.4694 C77.0535,78.2264 78.6815,76.0194 78.6815,72.8164 L78.6815,72.8164 Z M81.4875,65.1794 L81.4875,80.3854 C81.4875,84.6964 78.8035,87.5034 74.2175,87.9014 C70.1765,88.2524 67.5215,86.4474 67.1295,83.0694 L69.9955,82.4314 C70.2065,84.5684 71.7745,85.6894 74.2175,85.4774 C76.9025,85.2434 78.4705,83.5214 78.4705,80.8274 L78.4705,75.2594 L78.4105,75.2644 C78.4105,78.5574 76.3895,80.7084 72.9505,81.0074 C69.0295,81.3474 66.7065,78.7054 66.7065,73.8564 C66.7065,69.0364 69.0295,65.9614 72.9505,65.6204 C76.3895,65.3224 78.4105,67.1224 78.4105,70.4154 L78.4705,70.4104 L78.4705,65.4414 L81.4875,65.1794 Z" id="Fill-9" fill="#000000"></path>
                <path d="M99.4066,69.3405 L99.4066,78.5305 L96.3896,78.7925 L96.3896,69.6925 C96.3896,67.3575 95.0936,66.1225 92.8906,66.3145 C90.4166,66.5285 88.9386,68.3935 88.9386,71.3275 L88.9386,79.4395 L85.9226,79.7015 L85.9226,64.7935 L88.9386,64.5315 L88.9386,69.7105 L89.0006,69.7055 C89.0006,66.2625 90.8696,64.0655 94.0376,63.7905 C97.4156,63.4965 99.4066,65.5695 99.4066,69.3405" id="Fill-11" fill="#000000"></path>
                <path d="M8.2987,27.6237 L13.2437,27.1947 C13.2437,28.6607 14.2727,29.4317 16.0387,29.2787 C17.7087,29.1337 18.6717,28.4127 18.6717,27.3287 C18.6717,25.9587 17.0027,25.8487 15.0427,25.7317 C12.2167,25.5627 8.7157,25.3247 8.7157,21.4367 C8.7157,18.2507 11.4457,16.1017 16.0387,15.7027 C20.6307,15.3037 23.3607,17.0107 23.3607,20.3887 L18.4147,20.8187 C18.4147,19.4477 17.5477,18.7267 16.0387,18.8577 C14.6247,18.9797 13.8217,19.6227 13.8217,20.5157 C13.8217,21.6627 15.4287,21.8107 17.3217,21.9327 C20.1497,22.1337 23.7767,22.3917 23.7767,26.2167 C23.7767,29.7537 20.8877,32.0757 16.0387,32.4967 C11.1887,32.9177 8.2987,31.1297 8.2987,27.6237" id="Fill-13" fill="#000000"></path>
                <path d="M37.9408,22.1821 C37.9408,19.7921 36.6878,18.0521 34.6008,18.2341 C32.4818,18.4181 31.2298,20.1201 31.2298,22.7651 C31.2298,25.4421 32.4818,26.8941 34.6008,26.7111 C36.6878,26.5291 37.9408,24.6041 37.9408,22.1821 L37.9408,22.1821 Z M43.0468,13.6761 L43.0468,29.8331 L37.7158,30.2961 L37.7158,24.5911 L37.6518,24.5971 C37.6518,28.3581 35.5648,30.8011 31.9998,31.1111 C28.1148,31.4481 25.7708,28.5291 25.7708,23.2391 C25.7708,17.9801 28.1148,14.6541 31.9998,14.3171 C35.5648,14.0071 37.6518,16.0571 37.6518,19.8491 L37.7158,19.8431 L37.7158,14.1391 L43.0468,13.6761 Z" id="Fill-15" fill="#000000"></path>
                <polygon id="Fill-17" fill="#000000" points="46.7088 4.977 52.0398 4.514 52.0398 29.052 46.7088 29.515"></polygon>
                <path d="M61.9632,15.603 L61.9632,22.295 C61.9632,23.57 62.8302,24.26 64.3082,24.131 C65.0782,24.064 65.8162,23.809 66.3952,23.44 L66.3952,27.328 C65.3022,27.933 63.9212,28.34 62.6052,28.454 C58.8802,28.777 56.6322,26.965 56.6322,23.523 L56.6322,16.066 L54.5132,16.25 L54.5132,12.681 L56.9212,12.472 L56.9212,7.245 L62.2532,6.782 L62.2532,8.121 C62.2532,10.288 60.3572,11.855 57.0822,12.394 L57.0822,12.458 L66.6832,11.624 L66.6832,15.193 L61.9632,15.603 Z" id="Fill-19" fill="#000000"></path>
                <path d="M73.3314,18.1533 L79.5304,17.6153 C79.2724,15.4063 78.2134,14.2243 76.4794,14.3743 C74.7134,14.5283 73.5574,15.9033 73.3314,18.1533 L73.3314,18.1533 Z M84.7004,18.6963 L73.3004,19.6853 C73.4284,22.1283 74.5844,23.4623 76.4794,23.2973 C78.0524,23.1613 79.2084,22.2323 79.5614,20.8313 L84.7004,20.3853 C84.0894,24.2943 81.0074,26.8563 76.4794,27.2493 C71.2124,27.7063 68.1294,24.8513 68.1294,19.5613 C68.1294,14.2713 71.2124,10.9123 76.4794,10.4553 C81.6494,10.0063 84.7004,12.8323 84.7004,18.1223 L84.7004,18.6963 Z" id="Fill-21" fill="#000000"></path>
                <path d="M98.9281,16.8872 C98.9281,14.4972 97.6751,12.7572 95.5881,12.9382 C93.4681,13.1222 92.2171,14.8242 92.2171,17.4702 C92.2171,20.1462 93.4681,21.5992 95.5881,21.4152 C97.6751,21.2342 98.9281,19.3092 98.9281,16.8872 L98.9281,16.8872 Z M104.0331,0.0002 L104.0331,24.5382 L98.7031,25.0012 L98.7031,19.2962 L98.6391,19.3022 C98.6391,23.0632 96.5521,25.5062 92.9871,25.8162 C89.1011,26.1532 86.7571,23.2342 86.7571,17.9442 C86.7571,12.6852 89.1011,9.3592 92.9871,9.0222 C96.5521,8.7122 98.6391,10.7622 98.6391,14.5542 L98.7031,14.5482 L98.7031,0.4622 L104.0331,0.0002 Z" id="Fill-23" fill="#000000"></path>
                <path d="M24.6849,49.2663 L24.6849,58.9853 L19.3539,59.4493 L19.3539,49.9843 C19.3539,48.1673 18.3919,47.1993 16.7859,47.3393 C14.9869,47.4953 13.9269,48.9573 13.9269,51.2523 L13.9269,59.9203 L8.5969,60.3823 L8.5969,35.8443 L13.9269,35.3823 L13.9269,49.5313 L13.9929,49.5253 C13.9929,45.7013 15.8859,43.2743 19.0659,42.9983 C22.5979,42.6913 24.6849,45.0283 24.6849,49.2663" id="Fill-25" fill="#000000"></path>
                <path d="M32.5858,49.2497 L38.7838,48.7117 C38.5268,46.5027 37.4678,45.3197 35.7328,45.4707 C33.9668,45.6237 32.8108,46.9997 32.5858,49.2497 L32.5858,49.2497 Z M43.9548,49.7927 L32.5538,50.7817 C32.6838,53.2247 33.8388,54.5587 35.7328,54.3937 C37.3078,54.2577 38.4628,53.3287 38.8168,51.9277 L43.9548,51.4807 C43.3438,55.3897 40.2618,57.9517 35.7328,58.3457 C30.4668,58.8027 27.3838,55.9477 27.3838,50.6577 C27.3838,45.3667 30.4668,42.0087 35.7328,41.5517 C40.9038,41.1027 43.9548,43.9287 43.9548,49.2187 L43.9548,49.7927 Z" id="Fill-27" fill="#000000"></path>
                <path d="M59.3055,40.0459 L57.7645,44.8329 C57.1545,44.5039 56.3515,44.3819 55.6125,44.4459 C53.3975,44.6379 52.1115,46.5659 52.1115,49.7209 L52.1115,56.6049 L46.7825,57.0669 L46.7825,40.9109 L52.1115,40.4479 L52.1115,47.4589 L52.1765,47.4529 C52.1765,42.8319 53.9105,39.9729 56.8325,39.7189 C57.7325,39.6409 58.6635,39.7519 59.3055,40.0459" id="Fill-29" fill="#000000"></path>
                <path d="M73.534,38.8108 L71.992,43.5978 C71.382,43.2678 70.578,43.1468 69.841,43.2108 C67.624,43.4028 66.34,45.3308 66.34,48.4858 L66.34,55.3698 L61.009,55.8318 L61.009,39.6758 L66.34,39.2128 L66.34,46.2238 L66.405,46.2178 C66.405,41.5968 68.138,38.7378 71.06,38.4838 C71.959,38.4058 72.891,38.5158 73.534,38.8108" id="Fill-31" fill="#000000"></path>
                <path d="M75.3104,36.3569 L75.3104,31.1179 L80.6394,30.6519 L80.6394,32.0099 C80.6394,34.2089 78.7454,35.7969 75.4714,36.3429 L75.3104,36.3569 Z M75.2364,38.4399 L80.5674,37.9769 L80.5674,54.1339 L75.2364,54.5969 L75.2364,38.4399 Z" id="Fill-33" fill="#000000"></path>
                <path d="M100.3168,42.6994 L100.3168,52.4194 L94.9868,52.8824 L94.9868,43.4174 C94.9868,41.6004 94.0238,40.6324 92.4188,40.7724 C90.6198,40.9284 89.5598,42.3904 89.5598,44.6854 L89.5598,53.3534 L84.2288,53.8164 L84.2288,37.6594 L89.5598,37.1964 L89.5598,42.9644 L89.6248,42.9584 C89.6248,39.1344 91.5188,36.7074 94.6978,36.4314 C98.2308,36.1254 100.3168,38.4614 100.3168,42.6994" id="Fill-35" fill="#000000"></path>
                <path d="M115.2196,42.9035 C115.2196,40.5775 113.9666,38.9015 111.8786,39.0825 C109.7606,39.2665 108.5086,40.9045 108.5086,43.4865 C108.5086,46.0995 109.7606,47.4885 111.8786,47.3045 C113.9666,47.1235 115.2196,45.2615 115.2196,42.9035 L115.2196,42.9035 Z M120.3246,34.5255 L120.3246,50.7775 C120.3246,55.5265 117.2106,58.6005 111.9106,59.0605 C107.4796,59.4455 104.3646,57.6125 103.5946,54.1425 L108.6356,52.8755 C108.9576,54.3145 110.1776,55.0685 111.9106,54.9185 C113.8386,54.7505 114.9946,53.4715 114.9946,51.4955 L114.9946,45.1855 L114.9306,45.1915 C114.9306,48.9835 112.8436,51.3955 109.2786,51.7055 C105.3926,52.0425 103.0496,49.1865 103.0496,43.9605 C103.0496,38.7655 105.3926,35.5025 109.2786,35.1655 C112.8436,34.8565 114.9306,36.9055 114.9306,40.6975 L114.9946,40.6925 L114.9946,34.9875 L120.3246,34.5255 Z" id="Fill-37" fill="#000000"></path>
                <g id="Group-41" transform="translate(0.000000, 80.944900)">
                    <mask id="mask-2" fill="white">
                        <use xlink:href="#path-1"></use>
                    </mask>
                    <g id="Clip-40"></g>
                    <polygon id="Fill-39" fill="#000000" mask="url(#mask-2)" points="-0.0001 0.4276 3.9169 0.0876 3.9169 4.4806 -0.0001 4.8206"></polygon>
                </g>
            </g>
        </g>
    </g>
</svg>

<?xml version="1.0" encoding="utf-8"?>
<!-- Generator: Adobe Illustrator 22.1.0, SVG Export Plug-In . SVG Version: 6.00 Build 0)  -->
<svg version="1.1" id="Layer_1" xmlns="http://www.w3.org/2000/svg" xmlns:xlink="http://www.w3.org/1999/xlink" x="0px" y="0px"
	 width="120px" height="98px" viewBox="0 0 120 98" style="enable-background:new 0 0 120 98;" xml:space="preserve">
<title>SH logo</title>
<desc>Created with Sketch.</desc>
<g id="Symbols">
	<g id="Group-42" transform="translate(0.000000, 5.000000)">
		<path id="Fill-1" d="M20.6,77.9c0-3.2-1.6-5.2-4.4-4.9c-2.8,0.2-4.4,2.4-4.4,5.7c0,3.4,1.6,5.2,4.4,4.9
			C18.9,83.4,20.6,81.2,20.6,77.9L20.6,77.9z M23.4,62.1v23l-3,0.3v-5l-0.1,0c0,3.3-2,5.4-5.5,5.7c-3.9,0.3-6.2-2.3-6.2-7.2
			s2.3-8,6.2-8.3c3.4-0.3,5.5,1.5,5.5,4.8l0.1,0V62.3L23.4,62.1z"/>
		<path id="Fill-3" d="M29.9,76.3l8.3-0.7c-0.2-2.9-1.7-4.4-4.1-4.2C31.7,71.5,30.1,73.3,29.9,76.3L29.9,76.3z M41.2,76.6l-11.3,1
			c0.1,3.1,1.7,4.9,4.2,4.6c2.2-0.2,3.7-1.5,4.1-3.6l3-0.3c-0.5,3.5-3.1,5.8-7.1,6.2c-4.5,0.4-7.1-2.3-7.1-7.1c0-4.9,2.6-8,7.1-8.4
			c4.5-0.4,7.1,2.3,7.1,7.1V76.6z"/>
		<path id="Fill-5" d="M43.6,78.6l2.9-0.2c0,1.9,1.4,3,3.7,2.8c2.3-0.2,3.6-1.2,3.6-2.7c0-1.9-2-2-4.2-2.2c-2.6-0.2-5.6-0.4-5.6-3.7
			c0-2.7,2.3-4.6,6.1-4.9c3.8-0.3,6.1,1.3,6.1,4.4l-2.9,0.2c0-1.9-1.2-2.9-3.2-2.7c-2,0.2-3.2,1.1-3.2,2.4c0,1.6,1.8,1.7,3.9,1.9
			c2.7,0.2,5.9,0.5,5.9,4c0,2.9-2.4,4.9-6.5,5.2C46.1,83.5,43.6,81.8,43.6,78.6"/>
		<path id="Fill-7" d="M60.1,64.8l0.1-4.3l3.2-0.3l0,0.1c0.1,2.3-1.1,4-3.2,4.4L60.1,64.8z M60.1,67l3-0.3v14.9l-3,0.3V67z"/>
		<path id="Fill-9" d="M78.7,72.8c0-3.2-1.6-5.1-4.4-4.9c-2.8,0.2-4.4,2.4-4.4,5.7c0,3.3,1.6,5.1,4.4,4.9
			C77.1,78.2,78.7,76,78.7,72.8L78.7,72.8z M81.5,65.2v15.2c0,4.3-2.7,7.1-7.3,7.5c-4,0.4-6.7-1.5-7.1-4.8l2.9-0.6
			c0.2,2.1,1.8,3.3,4.2,3c2.7-0.2,4.3-2,4.3-4.7v-5.6l-0.1,0c0,3.3-2,5.4-5.5,5.7c-3.9,0.3-6.2-2.3-6.2-7.2c0-4.8,2.3-7.9,6.2-8.2
			c3.4-0.3,5.5,1.5,5.5,4.8l0.1,0v-5L81.5,65.2z"/>
		<path id="Fill-11" d="M99.4,69.3v9.2l-3,0.3v-9.1c0-2.3-1.3-3.6-3.5-3.4c-2.5,0.2-4,2.1-4,5v8.1l-3,0.3V64.8l3-0.3v5.2l0.1,0
			c0-3.4,1.9-5.6,5-5.9C97.4,63.5,99.4,65.6,99.4,69.3"/>
		<path id="Fill-13" d="M8.3,27.6l4.9-0.4c0,1.5,1,2.2,2.8,2.1c1.7-0.1,2.6-0.9,2.6-2c0-1.4-1.7-1.5-3.6-1.6
			c-2.8-0.2-6.3-0.4-6.3-4.3c0-3.2,2.7-5.3,7.3-5.7c4.6-0.4,7.3,1.3,7.3,4.7l-4.9,0.4c0-1.4-0.9-2.1-2.4-2c-1.4,0.1-2.2,0.8-2.2,1.7
			c0,1.1,1.6,1.3,3.5,1.4c2.8,0.2,6.5,0.5,6.5,4.3c0,3.5-2.9,5.9-7.7,6.3C11.2,32.9,8.3,31.1,8.3,27.6"/>
		<path id="Fill-15" d="M37.9,22.2c0-2.4-1.3-4.1-3.3-3.9c-2.1,0.2-3.4,1.9-3.4,4.5c0,2.7,1.3,4.1,3.4,3.9
			C36.7,26.5,37.9,24.6,37.9,22.2L37.9,22.2z M43,13.7v16.2l-5.3,0.5v-5.7l-0.1,0c0,3.8-2.1,6.2-5.7,6.5c-3.9,0.3-6.2-2.6-6.2-7.9
			c0-5.3,2.3-8.6,6.2-8.9c3.6-0.3,5.7,1.7,5.7,5.5l0.1,0v-5.7L43,13.7z"/>
		<polygon id="Fill-17" points="46.7,5 52,4.5 52,29.1 46.7,29.5 		"/>
		<path id="Fill-19" d="M62,15.6v6.7c0,1.3,0.9,2,2.3,1.8c0.8-0.1,1.5-0.3,2.1-0.7v3.9c-1.1,0.6-2.5,1-3.8,1.1c-3.7,0.3-6-1.5-6-4.9
			v-7.5l-2.1,0.2v-3.6l2.4-0.2V7.2l5.3-0.5v1.3c0,2.2-1.9,3.7-5.2,4.3v0.1l9.6-0.8v3.6L62,15.6z"/>
		<path id="Fill-21" d="M73.3,18.2l6.2-0.5c-0.3-2.2-1.3-3.4-3.1-3.2C74.7,14.5,73.6,15.9,73.3,18.2L73.3,18.2z M84.7,18.7l-11.4,1
			c0.1,2.4,1.3,3.8,3.2,3.6c1.6-0.1,2.7-1.1,3.1-2.5l5.1-0.4c-0.6,3.9-3.7,6.5-8.2,6.9c-5.3,0.5-8.3-2.4-8.3-7.7s3.1-8.6,8.3-9.1
			c5.2-0.4,8.2,2.4,8.2,7.7V18.7z"/>
		<path id="Fill-23" d="M98.9,16.9c0-2.4-1.3-4.1-3.3-3.9c-2.1,0.2-3.4,1.9-3.4,4.5c0,2.7,1.3,4.1,3.4,3.9
			C97.7,21.2,98.9,19.3,98.9,16.9L98.9,16.9z M104,0v24.5L98.7,25v-5.7l-0.1,0c0,3.8-2.1,6.2-5.7,6.5c-3.9,0.3-6.2-2.6-6.2-7.9
			c0-5.3,2.3-8.6,6.2-8.9c3.6-0.3,5.7,1.7,5.7,5.5l0.1,0V0.5L104,0z"/>
		<path id="Fill-25" d="M24.7,49.3V59l-5.3,0.5V50c0-1.8-1-2.8-2.6-2.6c-1.8,0.2-2.9,1.6-2.9,3.9v8.7l-5.3,0.5V35.8l5.3-0.5v14.1
			l0.1,0c0-3.8,1.9-6.3,5.1-6.5C22.6,42.7,24.7,45,24.7,49.3"/>
		<path id="Fill-27" d="M32.6,49.2l6.2-0.5c-0.3-2.2-1.3-3.4-3.1-3.2C34,45.6,32.8,47,32.6,49.2L32.6,49.2z M44,49.8l-11.4,1
			c0.1,2.4,1.3,3.8,3.2,3.6c1.6-0.1,2.7-1.1,3.1-2.5l5.1-0.4c-0.6,3.9-3.7,6.5-8.2,6.9c-5.3,0.5-8.3-2.4-8.3-7.7
			c0-5.3,3.1-8.6,8.3-9.1c5.2-0.4,8.2,2.4,8.2,7.7V49.8z"/>
		<path id="Fill-29" d="M59.3,40l-1.5,4.8c-0.6-0.3-1.4-0.5-2.2-0.4c-2.2,0.2-3.5,2.1-3.5,5.3v6.9l-5.3,0.5V40.9l5.3-0.5v7l0.1,0
			c0-4.6,1.7-7.5,4.7-7.7C57.7,39.6,58.7,39.8,59.3,40"/>
		<path id="Fill-31" d="M73.5,38.8L72,43.6c-0.6-0.3-1.4-0.5-2.2-0.4c-2.2,0.2-3.5,2.1-3.5,5.3v6.9L61,55.8V39.7l5.3-0.5v7l0.1,0
			c0-4.6,1.7-7.5,4.7-7.7C72,38.4,72.9,38.5,73.5,38.8"/>
		<path id="Fill-33" d="M75.3,36.4v-5.2l5.3-0.5V32c0,2.2-1.9,3.8-5.2,4.3L75.3,36.4z M75.2,38.4l5.3-0.5v16.2l-5.3,0.5V38.4z"/>
		<path id="Fill-35" d="M100.3,42.7v9.7L95,52.9v-9.5c0-1.8-1-2.8-2.6-2.6c-1.8,0.2-2.9,1.6-2.9,3.9v8.7l-5.3,0.5V37.7l5.3-0.5V43
			l0.1,0c0-3.8,1.9-6.3,5.1-6.5C98.2,36.1,100.3,38.5,100.3,42.7"/>
		<path id="Fill-37" d="M115.2,42.9c0-2.3-1.3-4-3.3-3.8c-2.1,0.2-3.4,1.8-3.4,4.4c0,2.6,1.3,4,3.4,3.8
			C114,47.1,115.2,45.3,115.2,42.9L115.2,42.9z M120.3,34.5v16.3c0,4.7-3.1,7.8-8.4,8.3c-4.4,0.4-7.5-1.4-8.3-4.9l5-1.3
			c0.3,1.4,1.5,2.2,3.3,2c1.9-0.2,3.1-1.4,3.1-3.4v-6.3l-0.1,0c0,3.8-2.1,6.2-5.7,6.5c-3.9,0.3-6.2-2.5-6.2-7.7
			c0-5.2,2.3-8.5,6.2-8.8c3.6-0.3,5.7,1.7,5.7,5.5l0.1,0V35L120.3,34.5z"/>
	</g>
</g>
</svg>
